hero/solid/shopping-cart.svg

<svg width="24" height="24" viewBox="0 0 24 24" fill="none" xmlns="http://www.w3.org/2000/svg">
<path d="M2.25 2.25C1.83579 2.25 1.5 2.58579 1.5 3C1.5 3.41421 1.83579 3.75 2.25 3.75H3.63568C3.80558 3.75 3.95425 3.86422 3.99803 4.02838L6.55576 13.6199C4.94178 14.0385 3.75 15.5051 3.75 17.25C3.75 17.6642 4.08579 18 4.5 18H20.25C20.6642 18 21 17.6642 21 17.25C21 16.8358 20.6642 16.5 20.25 16.5H5.37803C5.68691 15.6261 6.52034 15 7.5 15H18.7183C19.0051 15 19.2668 14.8364 19.3925 14.5785C20.5277 12.249 21.5183 9.83603 22.3527 7.35126C22.4191 7.15357 22.4002 6.93716 22.3005 6.75399C22.2008 6.57082 22.0294 6.43743 21.8273 6.38583C17.0055 5.15442 11.9536 4.5 6.75 4.5C6.39217 4.5 6.03505 4.5031 5.67868 4.50926L5.44738 3.64188C5.2285 2.82109 4.48515 2.25 3.63568 2.25H2.25Z" fill="#0F172A"/>
<path d="M3.75 20.25C3.75 19.4216 4.42157 18.75 5.25 18.75C6.07843 18.75 6.75 19.4216 6.75 20.25C6.75 21.0784 6.07843 21.75 5.25 21.75C4.42157 21.75 3.75 21.0784 3.75 20.25Z" fill="#0F172A"/>
<path d="M16.5 20.25C16.5 19.4216 17.1716 18.75 18 18.75C18.8284 18.75 19.5 19.4216 19.5 20.25C19.5 21.0784 18.8284 21.75 18 21.75C17.1716 21.75 16.5 21.0784 16.5 20.25Z" fill="#0F172A"/>
</svg>

<svg viewBox="0 0 24 24" xmlns="http://www.w3.org/2000/svg"><path d="M2.25 2.25v0c-.42 0-.75.33-.75.75 0 .41.33.75.75.75h1.38c.17 0 .31.11.36.27l2.558 9.59v0c-1.66.43-2.81 1.92-2.81 3.63 0 .41.33.75.75.75h15.75v0c.41 0 .75-.34.75-.75 0-.42-.34-.75-.75-.75H5.366v0c.31-.9 1.16-1.51 2.122-1.5h11.21v0c.28 0 .54-.17.67-.43l-.001-.001c1.14-2.35 2.13-4.76 2.96-7.23V7.32c.13-.4-.08-.82-.48-.95 -.02-.01-.04-.02-.06-.02V6.35C16.507 5 11.07 4.37 5.63 4.47l-.24-.867v0c-.22-.83-.97-1.4-1.82-1.4H2.18Zm1.5 18v0c0-.83.67-1.5 1.5-1.5 .82 0 1.5.67 1.5 1.5v0c0 .82-.68 1.5-1.5 1.5 -.83 0-1.5-.68-1.5-1.5Zm12.75 0v0c0-.83.67-1.5 1.5-1.5 .82 0 1.5.67 1.5 1.5v0c0 .82-.68 1.5-1.5 1.5 -.83 0-1.5-.68-1.5-1.5Z"/></svg>
